assets/img/facebook.svg

<svg width="20" height="20" viewBox="0 0 20 20" fill="none" xmlns="http://www.w3.org/2000/svg" id="facebook">
<path d="M20 10.0607C20 4.504 15.5233 0 10 0C4.47667 0 0 4.504 0 10.0607C0 15.0833 3.656 19.2453 8.43733 20V12.9693H5.89867V10.06H8.43733V7.844C8.43733 5.32267 9.93 3.92933 12.2147 3.92933C13.308 3.92933 14.4533 4.126 14.4533 4.126V6.602H13.1913C11.9493 6.602 11.5627 7.378 11.5627 8.174V10.0607H14.336L13.8927 12.9687H11.5627V20C16.344 19.2453 20 15.0833 20 10.0607Z" fill="white"/>
</svg>

<svg xmlns="http://www.w3.org/2000/svg" width="20" height="20" fill="none" xmlns:v="https://vecta.io/nano"><path d="M20 10.061C20 4.504 15.523 0 10 0S0 4.504 0 10.061C0 15.083 3.656 19.245 8.437 20v-7.031H5.899V10.06h2.539V7.844c0-2.521 1.493-3.915 3.777-3.915 1.093 0 2.239.197 2.239.197v2.476h-1.262c-1.242 0-1.629.776-1.629 1.572v1.887h2.773l-.443 2.908h-2.33V20C16.344 19.245 20 15.083 20 10.061z" fill="#fff"/></svg>
